X:85
T:Farmer's tune
R:Reel
O:England
M:4/4
A:Lancashire
B:Winder
K:D
Ac|\
d2fe cece | defd A2Ad | B2b2bagf | gfed dcBA |\
d2fd cece | defd A3A | Bbag fedc | e4 d2::\
fg|\
a2af afaf | bagf g2ef | g2ge gege | agfef3A |\
d2fd cece | defd A2Ad | Bbag fedc | e4 d2:|**
